X: 34283
T: Repeal Of The Union, The
R: reel
M: 4/4
K: Dmixolydian
AD (3DDD AD (3FED|GEcE dEcE|AD (3FED ADFD|GEcE EDD:|
Adde fdec|A2 (3cBA dBcB|Adde (3fed ed|GEcE DcBc|
Ad (3ddd fd e2|A>BcA dB (3cBA|a2 (3gfe fdec|GEcE D3||

